images/mBABA.svg

<svg height="250" viewBox="0 0 250 250" width="250" xmlns="http://www.w3.org/2000/svg"><path d="m250 125c0 69.035156-55.964844 125-125 125s-125-55.964844-125-125 55.964844-125 125-125 125 55.964844 125 125zm0 0" fill="#fff" fill-rule="evenodd"/><path d="m173.308594 92.871094-.167969-2.035156c-1.523437-5.421876-12.019531-9.832032-31.488281-12.882813 2.203125 1.523437 3.894531 3.222656 4.742187 4.746094l1.015625 2.714843-38.257812 9.152344-25.394532 7.121094 3.554688 8.308594-1.863281 2.882812-6.429688 5.253906-4.234375 2.035157-4.0625-2.542969 1.015625 17.800781c-8.464843 1.863281-13.882812 5.425781-16.082031 10.679688l-1.015625 3.050781c-.847656 3.898438.339844 6.78125 3.894531 8.816406-2.878906-3.390625-3.386718-6.613281-1.523437-9.832031 1.015625-1.527344 2.199219-3.050781 4.0625-4.410156 3.386719-2.878907 7.277343-4.574219 11.339843-5.421875h1.695313l.84375-16.445313 11.34375 3.050781 12.019531-.507812c3.722656-1.019531 7.109375-2.375 10.15625-4.238281 3.046875-1.699219 5.925782-3.902344 8.464844-6.613281 1.355469 1.015624 2.203125 4.238281 2.539062 9.492187l.675782-4.914063c0-4.578124-2.199219-7.800781-6.261719-9.835937l2.539063 3.054687-1.691407 1.355469c-3.386719 2.882813-7.109375 5.085938-11.003906 6.78125l-1.523437.507813c-4.742188 1.695312-9.648438 2.203125-14.558594 1.863281l-2.203125-.335937-.507813-.171876c-1.859375-.167968-3.382812-.847656-4.570312-1.863281l9.988281-6.78125c-.507813-2.714843-1.355469-5.425781-2.539063-7.800781l-.339843-.507812-.84375-1.015626c1.011719 0 6.261719-1.527343 16.25-4.917968 9.816406-3.390625 25.5625-7.289063 46.890625-11.699219l-2.707032-6.441406c15.746094 3.730469 24.546876 7.96875 26.238282 12.546875zm0 0"/><path d="m224.433594 135.765625c-30.46875 11.1875-51.800782 17.460937-63.988282 18.476563-12.867187 1.1875-13.882812-4.238282-3.046874-15.933594l13.035156-15.429688c3.046875-3.558594 5.585937-6.949218 7.617187-10.679687 7.785157-13.394531 7.785157-23.90625 0-31.535157l-.675781-.847656c-2.710938-2.371094-5.757812-4.238281-9.3125-5.425781-7.617188-2.878906-17.777344-3.390625-29.964844-1.695313-18.957031 2.375-37.917968 9.15625-56.539062 20.347657l-1.863282 1.015625c-17.945312 10.851562-30.640624 22.71875-38.089843 35.601562-7.957031 13.394532-7.789063 23.90625.167969 31.535156l6.773437 4.917969 1.183594.507813c8.464843 3.21875 17.4375 4.40625 26.917969 3.21875 11.847656-1.355469 24.375-6.101563 37.917968-14.410156l3.21875-2.203126-3.21875 1.019532c-17.097656 5.421875-31.484375 7.796875-43.167968 6.949218l-10.15625-2.035156-.675782-.339844-2.03125-.847656c-3.554687-2.035156-4.742187-4.914062-3.894531-8.816406l1.015625-3.050781c2.199219-5.253907 7.617188-8.816407 16.082031-10.679688l-1.015625-17.800781 4.0625 2.542969 4.234375-2.035157 6.429688-5.253906 1.863281-2.882812-3.554688-8.308594 25.390626-7.121094 38.261718-9.152344-1.015625-2.714843c-.847656-1.523438-2.539062-3.21875-4.742187-4.746094 19.46875 3.050781 29.964844 7.460937 31.488281 12.886719l.167969 2.03125v2.207031l-.675782 3.726563c-1.355468 3.902343-4.0625 8.648437-8.296874 13.734374l-18.621094 20.851563c-5.246094 4.917969-9.480469 11.699219-12.527344 20.34375-3.382812 8.480469.171875 12.886719 10.328125 13.054687 9.988281 0 23.53125-3.050781 40.121094-9.152343 15.066406-5.765625 28.609375-12.714844 40.796875-20.683594l3.726562-2.714844zm0 0" fill="#f08200" fill-rule="evenodd"/></svg>

<svg xmlns="http://www.w3.org/2000/svg" xmlns:xlink="http://www.w3.org/1999/xlink" width="250px" height="250px" viewBox="0 0 250 250" version="1.1">
<g id="surface1">
<path style=" stroke:none;fill-rule:evenodd;fill:rgb(100%,100%,100%);fill-opacity:1;" d="M 250 125 C 250 194.035156 194.035156 250 125 250 C 55.964844 250 0 194.035156 0 125 C 0 55.964844 55.964844 0 125 0 C 194.035156 0 250 55.964844 250 125 Z M 250 125 "/>
<path style=" stroke:none;fill-rule:nonzero;fill:rgb(0%,0%,0%);fill-opacity:1;" d="M 173.308594 92.871094 L 173.140625 90.835938 C 171.617188 85.414062 161.121094 81.003906 141.652344 77.953125 C 143.855469 79.476562 145.546875 81.175781 146.394531 82.699219 L 147.410156 85.414062 L 109.152344 94.566406 L 83.757812 101.6875 L 87.3125 109.996094 L 85.449219 112.878906 L 79.019531 118.132812 L 74.785156 120.167969 L 70.722656 117.625 L 71.738281 135.425781 C 63.273438 137.289062 57.855469 140.851562 55.65625 146.105469 L 54.640625 149.15625 C 53.792969 153.054688 54.980469 155.9375 58.535156 157.972656 C 55.65625 154.582031 55.148438 151.359375 57.011719 148.140625 C 58.027344 146.613281 59.210938 145.089844 61.074219 143.730469 C 64.460938 140.851562 68.351562 139.15625 72.414062 138.308594 L 74.109375 138.308594 L 74.953125 121.863281 L 86.296875 124.914062 L 98.316406 124.40625 C 102.039062 123.386719 105.425781 122.03125 108.472656 120.167969 C 111.519531 118.46875 114.398438 116.265625 116.9375 113.554688 C 118.292969 114.570312 119.140625 117.792969 119.476562 123.046875 L 120.152344 118.132812 C 120.152344 113.554688 117.953125 110.332031 113.890625 108.296875 L 116.429688 111.351562 L 114.738281 112.707031 C 111.351562 115.589844 107.628906 117.792969 103.734375 119.488281 L 102.210938 119.996094 C 97.46875 121.691406 92.5625 122.199219 87.652344 121.859375 L 85.449219 121.523438 L 84.941406 121.351562 C 83.082031 121.183594 81.558594 120.503906 80.371094 119.488281 L 90.359375 112.707031 C 89.851562 109.992188 89.003906 107.28125 87.820312 104.90625 L 87.480469 104.398438 L 86.636719 103.382812 C 87.648438 103.382812 92.898438 101.855469 102.886719 98.464844 C 112.703125 95.074219 128.449219 91.175781 149.777344 86.765625 L 147.070312 80.324219 C 162.816406 84.054688 171.617188 88.292969 173.308594 92.871094 Z M 173.308594 92.871094 "/>
<path style=" stroke:none;fill-rule:evenodd;fill:rgb(94.117647%,50.980395%,0%);fill-opacity:1;" d="M 224.433594 135.765625 C 193.964844 146.953125 172.632812 153.226562 160.445312 154.242188 C 147.578125 155.429688 146.5625 150.003906 157.398438 138.308594 L 170.433594 122.878906 C 173.480469 119.320312 176.019531 115.929688 178.050781 112.199219 C 185.835938 98.804688 185.835938 88.292969 178.050781 80.664062 L 177.375 79.816406 C 174.664062 77.445312 171.617188 75.578125 168.0625 74.390625 C 160.445312 71.511719 150.285156 71 138.097656 72.695312 C 119.140625 75.070312 100.179688 81.851562 81.558594 93.042969 L 79.695312 94.058594 C 61.75 104.910156 49.054688 116.777344 41.605469 129.660156 C 33.648438 143.054688 33.816406 153.566406 41.773438 161.195312 L 48.546875 166.113281 L 49.730469 166.621094 C 58.195312 169.839844 67.167969 171.027344 76.648438 169.839844 C 88.496094 168.484375 101.023438 163.738281 114.566406 155.429688 L 117.785156 153.226562 L 114.566406 154.246094 C 97.46875 159.667969 83.082031 162.042969 71.398438 161.195312 L 61.242188 159.160156 L 60.566406 158.820312 L 58.535156 157.972656 C 54.980469 155.9375 53.792969 153.058594 54.640625 149.15625 L 55.65625 146.105469 C 57.855469 140.851562 63.273438 137.289062 71.738281 135.425781 L 70.722656 117.625 L 74.785156 120.167969 L 79.019531 118.132812 L 85.449219 112.878906 L 87.3125 109.996094 L 83.757812 101.6875 L 109.148438 94.566406 L 147.410156 85.414062 L 146.394531 82.699219 C 145.546875 81.175781 143.855469 79.480469 141.652344 77.953125 C 161.121094 81.003906 171.617188 85.414062 173.140625 90.839844 L 173.308594 92.871094 L 173.308594 95.078125 L 172.632812 98.804688 C 171.277344 102.707031 168.570312 107.453125 164.335938 112.539062 L 145.714844 133.390625 C 140.46875 138.308594 136.234375 145.089844 133.1875 153.734375 C 129.804688 162.214844 133.359375 166.621094 143.515625 166.789062 C 153.503906 166.789062 167.046875 163.738281 183.636719 157.636719 C 198.703125 151.871094 212.246094 144.921875 224.433594 136.953125 L 228.160156 134.238281 Z M 224.433594 135.765625 "/>
</g>
</svg>
